X: 4490
T: Bonny Breast Knot
R: barndance
M: 4/4
K: Gmajor
D2|G2 BG F2 A2|D2 e2 dc BA|G2 BG F2 A2|d^c dA F2 D2|
G2 BG F2 A2|D2 e2 d=c BA|G2 BG F2 A2|d^c dA F2 D2|
K:D
f2 d2 f2 a2|ed cd ef g2|fe de fg a2|ag fe d2 e2|
f2 d2 f2 a2|cd ef gg a2|f2 f2 eg fe|d2 f2 d2||

